packages/fxa-content-server/app/images/confirm-pairing.svg

<svg width="171" height="116" viewBox="0 0 171 116" fill="none" xmlns="http://www.w3.org/2000/svg">
<g clip-path="url(#clip0_5905_95019)">
<path d="M0 51.76H59.34C59.34 51.76 59.34 43.89 52.89 42.99C46.57 42.6 44.38 45.57 44.38 45.57C44.38 45.57 41.74 33.44 29.67 33.44C24.9 33.42 18.06 34.21 12.9 42.6C2.06 40.41 0 51.76 0 51.76Z" fill="#D5BEFB"/>
<path d="M85.4896 115.15C113.319 115.15 135.88 92.5896 135.88 64.76C135.88 36.9304 113.319 14.37 85.4896 14.37C57.66 14.37 35.0996 36.9304 35.0996 64.76C35.0996 92.5896 57.66 115.15 85.4896 115.15Z" fill="#F5F4F6"/>
<path d="M85.5398 81.03C84.8398 80.99 83.1398 81.27 81.5298 79.08C81.5298 79.08 60.0898 44.32 60.0898 25.51C60.0898 11.42 71.5098 0 85.5898 0L85.5398 81.02V81.03Z" fill="#A081F2"/>
<path d="M85.4504 81.02C87.4404 81.11 88.9304 79.86 89.6104 78.83C89.6104 78.83 110.9 44.31 110.9 25.5C110.9 11.42 99.4804 0 85.4004 0L85.4504 81.02Z" fill="#6F45DC"/>
<path d="M85.3896 40.54C91.647 40.54 96.7196 35.4674 96.7196 29.21C96.7196 22.9526 91.647 17.88 85.3896 17.88C79.1322 17.88 74.0596 22.9526 74.0596 29.21C74.0596 35.4674 79.1322 40.54 85.3896 40.54Z" fill="white"/>
<path d="M110.9 70.07H170.24C170.24 70.07 170.24 62.2 163.79 61.3C157.47 60.91 155.28 63.88 155.28 63.88C155.28 63.88 152.64 51.75 140.57 51.75C135.8 51.73 128.96 52.52 123.8 60.91C112.96 58.72 110.9 70.07 110.9 70.07Z" fill="#D5BFFB"/>
</g>
<defs>
<clipPath id="clip0_5905_95019">
<rect width="170.24" height="115.14" fill="white"/>
</clipPath>
</defs>
</svg>

<svg width="171" height="116" fill="none" xmlns="http://www.w3.org/2000/svg"><g clip-path="url(#clip0_5905_95019)"><path d="M0 51.76h59.34s0-7.87-6.45-8.77c-6.32-.39-8.51 2.58-8.51 2.58s-2.64-12.13-14.71-12.13c-4.77-.02-11.61.77-16.77 9.16C2.06 40.41 0 51.76 0 51.76z" fill="#D5BEFB"/><path d="M85.49 115.15c27.829 0 50.39-22.56 50.39-50.39 0-27.83-22.561-50.39-50.39-50.39-27.83 0-50.39 22.56-50.39 50.39 0 27.83 22.56 50.39 50.39 50.39z" fill="#F5F4F6"/><path d="M85.54 81.03c-.7-.04-2.4.24-4.01-1.95 0 0-21.44-34.76-21.44-53.57C60.09 11.42 71.51 0 85.59 0l-.05 81.02v.01z" fill="#A081F2"/><path d="M85.45 81.02c1.99.09 3.48-1.16 4.16-2.19 0 0 21.29-34.52 21.29-53.33C110.9 11.42 99.48 0 85.4 0l.05 81.02z" fill="#6F45DC"/><path d="M85.39 40.54c6.257 0 11.33-5.073 11.33-11.33s-5.073-11.33-11.33-11.33c-6.258 0-11.33 5.073-11.33 11.33s5.072 11.33 11.33 11.33z" fill="#fff"/><path d="M110.9 70.07h59.34s0-7.87-6.45-8.77c-6.32-.39-8.51 2.58-8.51 2.58s-2.64-12.13-14.71-12.13c-4.77-.02-11.61.77-16.77 9.16-10.84-2.19-12.9 9.16-12.9 9.16z" fill="#D5BFFB"/></g><defs><clipPath id="clip0_5905_95019"><path fill="#fff" d="M0 0h170.24v115.14H0z"/></clipPath></defs></svg>
